public/toolthree.svg

<svg width='65' height='113' viewBox='0 0 65 113' fill='none' xmlns='http://www.w3.org/2000/svg'><path d='M6.93359 34.1884C7.93026 29.2894 10.5364 27.8308 14.1547 28.5027C14.4017 28.5488 14.6825 28.2585 14.7042 27.9021C14.8186 26.0367 14.8532 24.1 14.9225 22.0252L10.1238 18.2371V11.4067L15.4807 15.6355L16.4973 10.4297L21.316 16.3265C21.1297 17.4487 20.9528 18.5135 20.7543 19.7044L25.5479 23.489V30.309L20.0923 26.0019L19.8219 30.8879L25.1509 35.095L25.6779 32.4951L30.3978 37.5366C30.4558 37.6875 30.497 37.8443 30.5208 38.0043C29.7409 40.1391 30.6015 42.1644 32.1814 45.0711C38.3001 56.3216 37.793 68.131 31.3338 68.7272C28.9071 68.9506 25.3685 67.386 22.5718 64.8096V57.7862C23.8821 58.5748 25.2343 59.291 26.6225 59.9315C27.4207 60.275 28.3056 60.3616 29.1549 60.1792C32.4266 59.3543 32.0253 52.8421 28.5093 47.4667C27.4566 49.2948 26.2849 51.0512 25.0019 52.7247C22.6861 55.3645 19.6234 55.774 15.7208 53.3975C11.3597 50.7437 8.31509 45.4614 7.09482 38.3702C7.05144 38.1808 6.99759 37.9939 6.93359 37.8105V34.1884ZM15.5136 45.6961C15.2805 42.7929 15.0465 39.887 14.7753 36.5179C14.0635 36.8582 13.3989 37.29 12.7984 37.8026C12.0799 38.5849 11.7012 39.8444 12.3512 42.0149C12.5804 42.8213 12.9814 43.5681 13.5267 44.2037C14.072 44.8393 14.7484 45.3485 15.5093 45.6961H15.5136ZM20.2491 45.2693L20.6183 45.7439L23.5476 41.3734L19.8357 38.4432C19.9796 40.8832 20.1122 43.0789 20.2457 45.2693H20.2491Z' fill='#CEE7FD' stroke='#005BEA' stroke-width='2'/><path d='M58.61 103.122L53.1032 98.7758C52.4905 95.81 51.8275 92.778 51.2642 89.7835C51.2237 89.3271 51.0873 88.8845 50.8642 88.4847C50.641 88.0848 50.3361 87.7369 49.9694 87.4636C47.3321 85.4426 44.6922 83.3678 42.0549 81.2104C41.2914 80.5854 40.9195 80.5932 40.6786 81.4885C40.1222 83.566 39.4654 85.5192 38.8509 87.521L33.4004 83.2174C33.8129 81.9501 34.1978 80.7497 34.5904 79.5588C37.4209 70.9665 40.2609 62.3872 43.0689 53.7635C43.3055 53.0342 43.5725 52.8491 44.2823 53.4654C45.5294 54.5502 46.7852 55.4263 48.0349 56.4894C48.4126 56.8655 48.6927 57.3287 48.8505 57.8385C52.1346 72.8472 55.3975 87.8495 58.6394 102.845C58.6389 102.938 58.6291 103.031 58.61 103.122ZM49.4432 80.8696C48.3166 75.2535 47.2098 69.773 46.0051 63.7918L42.5628 75.4395L49.4432 80.8696Z' fill='#1B69FF'/></svg>

<svg xmlns="http://www.w3.org/2000/svg" width="65" height="113" fill="none" viewBox="0 0 65 113"><path fill="#cee7fd" stroke="#005bea" stroke-width="2" d="M6.934 34.188c.996-4.899 3.602-6.357 7.22-5.685.248.046.528-.244.55-.6.115-1.866.15-3.803.218-5.878l-4.798-3.788v-6.83l5.357 4.229 1.016-5.206 4.819 5.897-.562 3.377 4.794 3.785v6.82l-5.456-4.307-.27 4.886 5.329 4.207.527-2.6 4.72 5.042q.087.226.123.467c-.78 2.135.08 4.16 1.66 7.067 6.12 11.25 5.612 23.06-.847 23.656-2.427.224-5.965-1.341-8.762-3.917v-7.024a42 42 0 0 0 4.05 2.145c.799.344 1.684.43 2.533.248 3.272-.825 2.87-7.337-.646-12.712a48 48 0 0 1-3.507 5.258c-2.316 2.64-5.379 3.049-9.281.672-4.361-2.653-7.406-7.936-8.626-15.027a5 5 0 0 0-.161-.56zm8.58 11.508-.739-9.178a9 9 0 0 0-1.977 1.285c-.718.782-1.097 2.041-.447 4.212a5.8 5.8 0 0 0 3.158 3.681zm4.735-.427.37.475 2.929-4.37-3.712-2.93c.144 2.44.276 4.635.41 6.825z"/><path fill="#1b69ff" d="m58.61 103.122-5.507-4.346c-.613-2.966-1.276-5.998-1.839-8.992a3.26 3.26 0 0 0-1.295-2.32 317 317 0 0 1-7.914-6.254c-.764-.625-1.136-.617-1.376.279-.557 2.077-1.214 4.03-1.828 6.032l-5.45-4.304c.412-1.267.797-2.467 1.19-3.658 2.83-8.593 5.67-17.172 8.478-25.795.236-.73.503-.915 1.213-.299 1.247 1.085 2.503 1.961 3.753 3.024.378.377.658.84.816 1.35q4.926 22.512 9.788 45.006 0 .14-.029.277M49.443 80.87c-1.126-5.617-2.233-11.097-3.438-17.078l-3.442 11.647z"/></svg>
